lib/flags/l/016.svg

<svg xmlns="http://www.w3.org/2000/svg" fill="none" viewBox="0 0 32 24"><mask id="016_svg__a" width="32" height="24" x="0" y="0" mask-type="alpha" maskUnits="userSpaceOnUse"><path fill="#fff" d="M0 0H32V24H0z"/></mask><g mask="url(#016_svg__a)"><path fill="#2E42A5" fill-rule="evenodd" d="M0 0V24H32V0H0Z" clip-rule="evenodd"/><mask id="016_svg__b" width="32" height="24" x="0" y="0" mask-type="alpha" maskUnits="userSpaceOnUse"><path fill="#fff" fill-rule="evenodd" d="M0 0V24H32V0H0Z" clip-rule="evenodd"/></mask><g mask="url(#016_svg__b)"><path fill="#2B409A" d="M0 0H18V14H0z"/><mask id="016_svg__c" width="18" height="14" x="0" y="0" mask-type="alpha" maskUnits="userSpaceOnUse"><path fill="#fff" d="M0 0H18V14H0z"/></mask><g mask="url(#016_svg__c)"><path fill="#F7FCFF" d="M-2.00427 12.9998L1.95668 14.737L18.0899 1.88872L20.1792 -0.69281L15.9435 -1.27343L9.36317 4.26326L4.06667 7.99369L-2.00427 12.9998Z"/><path fill="#F50100" d="M-1.46204 14.2169L0.555885 15.225L19.4289 -0.932678H16.5955L-1.46204 14.2169Z"/><path fill="#F7FCFF" d="M20.0043 12.9998L16.0433 14.737L-0.0898743 1.88872L-2.17919 -0.69281L2.05648 -1.27343L8.63683 4.26326L13.9333 7.99369L20.0043 12.9998Z"/><path fill="#F50100" d="M19.8691 13.8733L17.8512 14.8815L9.81489 7.96351L7.43229 7.19059L-2.3802 -0.683947H0.453194L10.2602 7.00368L12.8651 7.9305L19.8691 13.8733Z"/><mask id="016_svg__d" width="22" height="18" x="-2" y="-2" fill="#000" maskUnits="userSpaceOnUse"><path fill="#fff" d="M-2-2H20V16H-2z"/><path fill-rule="evenodd" d="M9.98451 0H7.98451V6H0V8H7.98451V14H9.98451V8H18V6H9.98451V0Z" clip-rule="evenodd"/></mask><path fill="#F50100" fill-rule="evenodd" d="M9.98451 0H7.98451V6H0V8H7.98451V14H9.98451V8H18V6H9.98451V0Z" clip-rule="evenodd"/><path fill="#F7FCFF" d="M7.98451 0V-1.5H6.48451V0H7.98451ZM9.98451 0H11.4845V-1.5H9.98451V0ZM7.98451 6V7.5H9.48451V6H7.98451ZM0 6V4.5H-1.5V6H0ZM0 8H-1.5V9.5H0V8ZM7.98451 8H9.48451V6.5H7.98451V8ZM7.98451 14H6.48451V15.5H7.98451V14ZM9.98451 14V15.5H11.4845V14H9.98451ZM9.98451 8V6.5H8.48451V8H9.98451ZM18 8V9.5H19.5V8H18ZM18 6H19.5V4.5H18V6ZM9.98451 6H8.48451V7.5H9.98451V6ZM7.98451 1.5H9.98451V-1.5H7.98451V1.5ZM9.48451 6V0H6.48451V6H9.48451ZM0 7.5H7.98451V4.5H0V7.5ZM1.5 8V6H-1.5V8H1.5ZM7.98451 6.5H0V9.5H7.98451V6.5ZM9.48451 14V8H6.48451V14H9.48451ZM9.98451 12.5H7.98451V15.5H9.98451V12.5ZM8.48451 8V14H11.4845V8H8.48451ZM18 6.5H9.98451V9.5H18V6.5ZM16.5 6V8H19.5V6H16.5ZM9.98451 7.5H18V4.5H9.98451V7.5ZM8.48451 0V6H11.4845V0H8.48451Z" mask="url(#016_svg__d)"/></g></g><path fill="#F7FCFF" d="M9 20.5 7.69835 21.7029 7.82725 19.9352 6.07522 19.6676 7.53761 18.6662 6.65451 17.1295 8.34917 17.6485 9 16 9.65083 17.6485 11.3455 17.1295 10.4624 18.6662 11.9248 19.6676 10.1727 19.9352 10.3017 21.7029 9 20.5zM22 13 21.1322 13.8019 21.2182 12.6235 20.0501 12.445 21.0251 11.7775 20.4363 10.753 21.5661 11.099 22 10 22.4339 11.099 23.5637 10.753 22.9749 11.7775 23.9499 12.445 22.7818 12.6235 22.8678 13.8019 22 13zM24 5 23.1322 5.80194 23.2182 4.62349 22.0501 4.44504 23.0251 3.77748 22.4363 2.75302 23.5661 3.09903 24 2 24.4339 3.09903 25.5637 2.75302 24.9749 3.77748 25.9499 4.44504 24.7818 4.62349 24.8678 5.80194 24 5zM29 9 28.1322 9.80194 28.2182 8.62349 27.0501 8.44504 28.0251 7.77748 27.4363 6.75302 28.5661 7.09903 29 6 29.4339 7.09903 30.5637 6.75302 29.9749 7.77748 30.9499 8.44504 29.7818 8.62349 29.8678 9.80194 29 9zM25 22 24.1322 22.8019 24.2182 21.6235 23.0501 21.445 24.0251 20.7775 23.4363 19.753 24.5661 20.099 25 19 25.4339 20.099 26.5637 19.753 25.9749 20.7775 26.9499 21.445 25.7818 21.6235 25.8678 22.8019 25 22zM28.5 14.25 27.6183 14.7135 27.7867 13.7318 27.0734 13.0365 28.0592 12.8932 28.5 12 28.9408 12.8932 29.9266 13.0365 29.2133 13.7318 29.3817 14.7135 28.5 14.25z"/></g></svg>

<svg xmlns="http://www.w3.org/2000/svg" fill="none" viewBox="0 0 32 24"><mask id="016_svg__a" width="32" height="24" x="0" y="0" maskUnits="userSpaceOnUse"><path fill="#fff" d="M0 0h32v24H0z"/></mask><g mask="url(#016_svg__a)"><path fill="#2E42A5" fill-rule="evenodd" d="M0 0v24h32V0H0z" clip-rule="evenodd"/><mask id="016_svg__b" width="32" height="24" x="0" y="0" maskUnits="userSpaceOnUse"><path fill="#fff" fill-rule="evenodd" d="M0 0v24h32V0H0z" clip-rule="evenodd"/></mask><g mask="url(#016_svg__b)"><path fill="#2B409A" d="M0 0h18v14H0z"/><mask id="016_svg__c" width="18" height="14" x="0" y="0" maskUnits="userSpaceOnUse"><path fill="#fff" d="M0 0h18v14H0z"/></mask><g mask="url(#016_svg__c)"><path fill="#F7FCFF" d="M-2.004 13l3.96 1.737L18.09 1.889l2.09-2.582-4.236-.58-6.58 5.536-5.297 3.73L-2.004 13z"/><path fill="#F50100" d="M-1.462 14.217l2.018 1.008L19.429-.933h-2.833l-18.058 15.15z"/><path fill="#F7FCFF" d="M20.004 13l-3.96 1.737L-.09 1.889-2.18-.693l4.236-.58 6.58 5.536 5.297 3.73L20.004 13z"/><path fill="#F50100" d="M19.87 13.873l-2.019 1.009-8.036-6.918-2.383-.773L-2.38-.684H.453l9.807 7.688 2.605.927 7.004 5.942z"/><mask id="016_svg__d" width="22" height="18" x="-2" y="-2" fill="#000" maskUnits="userSpaceOnUse"><path fill="#fff" d="M-2-2h22v18H-2z"/><path fill-rule="evenodd" d="M9.985 0h-2v6H0v2h7.985v6h2V8H18V6H9.985V0z" clip-rule="evenodd"/></mask><path fill="#F50100" fill-rule="evenodd" d="M9.985 0h-2v6H0v2h7.985v6h2V8H18V6H9.985V0z" clip-rule="evenodd"/><path fill="#F7FCFF" d="M7.985 0v-1.5h-1.5V0h1.5zm2 0h1.5v-1.5h-1.5V0zm-2 6v1.5h1.5V6h-1.5zM0 6V4.5h-1.5V6H0zm0 2h-1.5v1.5H0V8zm7.985 0h1.5V6.5h-1.5V8zm0 6h-1.5v1.5h1.5V14zm2 0v1.5h1.5V14h-1.5zm0-6V6.5h-1.5V8h1.5zM18 8v1.5h1.5V8H18zm0-2h1.5V4.5H18V6zM9.985 6h-1.5v1.5h1.5V6zm-2-4.5h2v-3h-2v3zm1.5 4.5V0h-3v6h3zM0 7.5h7.985v-3H0v3zm1.5.5V6h-3v2h3zm6.485-1.5H0v3h7.985v-3zm1.5 7.5V8h-3v6h3zm.5-1.5h-2v3h2v-3zM8.485 8v6h3V8h-3zM18 6.5H9.985v3H18v-3zM16.5 6v2h3V6h-3zM9.985 7.5H18v-3H9.985v3zM8.485 0v6h3V0h-3z" mask="url(#016_svg__d)"/></g></g><path fill="#F7FCFF" d="M9 20.5l-1.302 1.203.13-1.768-1.753-.267 1.463-1.002-.883-1.537 1.694.52L9 16l.65 1.648 1.695-.518-.883 1.536 1.463 1.002-1.752.267.129 1.768L9 20.5zM22 13l-.868.802.086-1.178-1.168-.179.975-.668-.589-1.024 1.13.346L22 10l.434 1.099 1.13-.346-.59 1.024.976.668-1.168.178.086 1.179L22 13zm2-8l-.868.802.086-1.179-1.168-.178.975-.668-.589-1.024 1.13.346L24 2l.434 1.099 1.13-.346-.59 1.024.976.668-1.168.178.086 1.179L24 5zm5 4l-.868.802.086-1.179-1.168-.178.975-.668-.589-1.024 1.13.346L29 6l.434 1.099 1.13-.346-.59 1.024.976.668-1.168.178.086 1.179L29 9zm-4 13l-.868.802.086-1.178-1.168-.179.975-.668-.589-1.024 1.13.346L25 19l.434 1.099 1.13-.346-.59 1.024.976.668-1.168.178.086 1.179L25 22zm3.5-7.75l-.882.463.169-.981-.714-.695.986-.144L28.5 12l.44.893.987.143-.714.696.169.982-.882-.464z"/></g></svg>
